svg_80x80/csharp.svg

<svg viewBox="0 0 80 80" xmlns="http://www.w3.org/2000/svg">
<rect width="100%" height="100%" fill="white"/>
<path d="M69 28.8V51.2C68.9948 52.8879 68.5421 54.5442 67.688 56L40 40L67.696 24C68.5469 25.4568 68.9969 27.1129 69 28.8V28.8Z" fill="#3A0096"/>
<path d="M67.696 24L40 40L12.328 56C11.468 54.5459 11.0097 52.8894 11 51.2V28.8C11.0003 27.1151 11.4441 25.4601 12.2866 24.001C13.1292 22.542 14.3409 21.3304 15.8 20.488L35.2 9.28799C36.6594 8.44541 38.3148 8.00183 40 8.00183C41.6852 8.00183 43.3406 8.44541 44.8 9.28799L64.2 20.488C65.6526 21.3325 66.8581 22.5435 67.696 24Z" fill="#A178DB"/>
<path d="M40 40L67.688 56C66.8486 57.4421 65.646 58.6392 64.2 59.472L44.8 70.712C43.3406 71.5546 41.6852 71.9982 40 71.9982C38.3149 71.9982 36.6594 71.5546 35.2 70.712L15.8 59.512C14.3594 58.6847 13.162 57.4928 12.328 56.056L40 40Z" fill="#32007E"/>
<path d="M56.8 49.728C54.6637 53.42 51.3693 56.3043 47.4273 57.9338C43.4853 59.5633 39.1159 59.8471 34.9963 58.7411C30.8767 57.6352 27.2369 55.2012 24.641 51.8166C22.0451 48.4319 20.6382 44.2855 20.6382 40.02C20.6382 35.7545 22.0451 31.6081 24.641 28.2234C27.2369 24.8388 30.8767 22.4048 34.9963 21.2989C39.1159 20.1929 43.4853 20.4767 47.4273 22.1062C51.3693 23.7357 54.6637 26.62 56.8 30.312L48.304 35.2C48.192 35.008 48.072 34.816 47.944 34.624C46.7796 32.8953 45.0843 31.5925 43.1141 30.9124C41.144 30.2323 39.006 30.2119 37.0232 30.8542C35.0404 31.4965 33.3205 32.7667 32.1233 34.4728C30.9261 36.1789 30.3167 38.2283 30.3871 40.3113C30.4576 42.3944 31.204 44.3979 32.5136 46.0193C33.8233 47.6407 35.6251 48.7918 37.6467 49.2987C39.6684 49.8056 41.8001 49.6409 43.7198 48.8293C45.6396 48.0177 47.243 46.6034 48.288 44.8L56.8 49.728Z" fill="white"/>
<path d="M56.104 44.824L57.16 34.48H55.576L54.52 44.824H56.104ZM52.76 44.824L53.816 34.48H52.232L51.176 44.824H52.76Z" fill="white"/>
<path d="M50.432 36.92H58.272V38.448H50.432V36.92ZM50.024 40.6H57.8641V42.128H50.024V40.6Z" fill="white"/>
</svg>

<svg xmlns="http://www.w3.org/2000/svg" viewBox="0 0 80 80">
  <rect width="100%" height="100%" fill="#fff"/>
  <path fill="#3A0096" d="M69 28.8v22.4c0 1.7-.5 3.3-1.3 4.8L40 40l27.7-16a9.6 9.6 0 0 1 1.3 4.8Z"/>
  <path fill="#A178DB" d="M67.7 24 40 40 12.3 56a9.5 9.5 0 0 1-1.3-4.8V28.8a9.6 9.6 0 0 1 4.8-8.3L35.2 9.3a9.6 9.6 0 0 1 9.6 0l19.4 11.2c1.5.8 2.7 2 3.5 3.5Z"/>
  <path fill="#32007E" d="m40 40 27.7 16c-.9 1.4-2 2.6-3.5 3.5L44.8 70.7a9.6 9.6 0 0 1-9.6 0L15.8 59.5c-1.4-.8-2.6-2-3.5-3.4L40 40Z"/>
  <path fill="#fff" d="M56.8 49.7a19.4 19.4 0 1 1 0-19.4l-8.5 4.9-.4-.6a9.6 9.6 0 1 0 .4 10.2l8.5 5Z"/>
  <path fill="#fff" d="m56.1 44.8 1-10.3h-1.5l-1 10.3H56Zm-3.3 0 1-10.3h-1.6l-1 10.3h1.6Z"/>
  <path fill="#fff" d="M50.4 37h7.9v1.4h-7.9V37Zm-.4 3.6H58v1.5H50v-1.5Z"/>
</svg>
